public/twitterBig.svg

<svg width="32" height="32" viewBox="0 0 32 32" fill="none" xmlns="http://www.w3.org/2000/svg">
<circle cx="16" cy="16" r="15.6" fill="#131D0E" stroke="#FCFCFC" stroke-width="0.8"/>
<path d="M16.988 15.0808L21.36 9.99951H20.324L16.5287 14.4115L13.4967 9.99951H10L14.584 16.6708L10 21.9995H11.036L15.044 17.3402L18.2453 21.9995H21.742L16.988 15.0808ZM15.5693 16.7295L15.1047 16.0655L11.4093 10.7788H13L15.9827 15.0455L16.4473 15.7095L20.324 21.2548H18.7327L15.5693 16.7295Z" fill="#FCFCFC"/>
</svg>

<svg xmlns="http://www.w3.org/2000/svg" width="32" height="32" fill="none" viewBox="0 0 32 32"><circle cx="16" cy="16" r="15.6" fill="#131d0e" stroke="#fcfcfc" stroke-width=".8"/><path fill="#fcfcfc" d="M16.988 15.08 21.36 10h-1.036l-3.795 4.412L13.497 10H10l4.584 6.67L10 22h1.036l4.008-4.66L18.245 22h3.497zm-1.419 1.65-.464-.665-3.696-5.286H13l2.983 4.267.464.664 3.877 5.545h-1.591z"/></svg>
